X:1
T:McFarley's
M:4/4
L:1/8
%Q:230
S:Altan "Harvest Storm"
R:reel
Z:Philippe Varlet 
% Contributed 19991130170617 by John Chambers jc:trillian.mit.edu
K:D
(3ABc | dD (3DDD {G}EDB,D | A,DFA {d}BAFA | dDcD BDAD | {G}EDAD {d}BAFA |
dD (3DDD {G}EDB,D | A,DFA {d}BAFA | (3Bcd ec dBAF | {G}EDEF D2 :|
ag | fgab afdg | fdad bdad | efga ge=c=f | e=cg=c a=cg=c |
fgaf bfaf | gfeg fdBc | defd ecdB | AFEF D2 :|
